img/skills/Postgre.svg

<svg width="46" height="55" viewBox="0 0 46 55" fill="none" xmlns="http://www.w3.org/2000/svg">
<path d="M23 2L1 15V40.5L23 53L45 40.5V15L23 2Z" fill="url(#paint0_linear_594_3413)" stroke="#336791" stroke-width="2"/>
<g clip-path="url(#clip0_594_3413)">
<path d="M38.876 30.7606C38.6841 30.1795 38.1815 29.7747 37.5315 29.6776C37.225 29.6319 36.874 29.6514 36.4586 29.737C35.7346 29.8864 35.1975 29.9432 34.8055 29.9542C36.2851 27.4561 37.4883 24.6074 38.1809 21.9257C39.3009 17.5896 38.7024 15.6142 38.003 14.7207C36.1521 12.3557 33.4518 11.0852 30.194 11.0464C28.4561 11.0251 26.9305 11.3682 26.1346 11.615C25.3936 11.4842 24.5969 11.4112 23.7609 11.3977C22.1938 11.3727 20.8091 11.7144 19.626 12.4165C18.971 12.195 17.9198 11.8827 16.7058 11.6835C13.8505 11.2147 11.5493 11.58 9.86601 12.7691C7.82776 14.2089 6.88289 16.7104 7.05764 20.2041C7.11314 21.3134 7.73364 24.6884 8.71064 27.8891C9.27214 29.7289 9.87089 31.2566 10.4903 32.4304C11.3686 34.0947 12.3085 35.0749 13.3636 35.4269C13.955 35.6239 15.0295 35.7619 16.1596 34.8206C16.3029 34.9941 16.494 35.1665 16.7476 35.3266C17.0698 35.5297 17.4636 35.6957 17.857 35.7941C19.2746 36.1485 20.6025 36.0599 21.7354 35.5631C21.7424 35.7646 21.7478 35.9571 21.7523 36.1234C21.7598 36.393 21.7673 36.6574 21.7771 36.9046C21.8443 38.5764 21.958 39.8762 22.295 40.7857C22.3135 40.8357 22.3384 40.912 22.3646 40.9929C22.5328 41.5076 22.8139 42.3694 23.5291 43.0442C24.2698 43.7434 25.1656 43.9577 25.9861 43.9577C26.3976 43.9577 26.7903 43.9037 27.1346 43.83C28.3621 43.5669 29.7563 43.1661 30.7648 41.7301C31.7183 40.3726 32.1818 38.328 32.2656 35.1064C32.2765 35.0152 32.2865 34.9282 32.2961 34.8454L32.3161 34.6751L32.5408 34.6949L32.5986 34.6987C33.8489 34.7557 35.3776 34.4906 36.3165 34.0545C37.0584 33.7102 39.4358 32.4551 38.876 30.7606Z" fill="black"/>
<path d="M36.7383 31.0902C33.0208 31.857 32.7651 30.5984 32.7651 30.5984C36.6901 24.7743 38.331 17.3814 36.9151 15.572C33.0521 10.6364 26.3653 12.9707 26.2536 13.0312L26.2178 13.0377C25.4833 12.8852 24.6614 12.7944 23.7375 12.7793C22.0555 12.7518 20.7795 13.2203 19.8113 13.9545C19.8113 13.9545 7.88251 9.04029 8.43738 20.135C8.55538 22.4953 11.8204 37.9942 15.7146 33.3128C17.138 31.6009 18.5134 30.1535 18.5134 30.1535C19.1964 30.6073 20.0141 30.8388 20.8714 30.7557L20.938 30.6992C20.9173 30.9117 20.9268 31.1195 20.9646 31.3657C19.9614 32.4865 20.2563 32.6833 18.2508 33.0962C16.2214 33.5144 17.4135 34.2589 18.1919 34.4537C19.1355 34.6895 21.3185 35.0238 22.7935 32.9589L22.7348 33.1945C23.1278 33.5094 23.4038 35.2424 23.3575 36.8135C23.3113 38.3845 23.2804 39.4632 23.59 40.3057C23.8999 41.1482 24.2085 43.0438 26.845 42.4789C29.0479 42.0068 30.1895 40.7834 30.3484 38.7427C30.461 37.2919 30.7161 37.5064 30.7321 36.2093L30.9368 35.5953C31.1726 33.6287 30.9743 32.9942 32.3314 33.2893L32.6614 33.3183C33.6601 33.3637 34.9676 33.1575 35.735 32.8009C37.3873 32.0342 38.3673 30.7538 36.738 31.0902H36.7383Z" fill="#336791"/>
<path d="M20.5095 21.1907C20.1745 21.1441 19.8711 21.1872 19.7176 21.3035C19.6314 21.3689 19.6046 21.4446 19.5974 21.4967C19.5781 21.6349 19.6749 21.7876 19.7344 21.8664C19.9026 22.0894 20.1484 22.2426 20.3916 22.2764C20.4269 22.2814 20.462 22.2836 20.4969 22.2836C20.9025 22.2836 21.2714 21.9677 21.3039 21.7346C21.3445 21.4426 20.9206 21.2479 20.5095 21.1907ZM31.6075 21.2C31.5755 20.9711 31.1682 20.9059 30.7817 20.9596C30.3957 21.0134 30.0215 21.1876 30.0527 21.417C30.0777 21.5954 30.3999 21.8999 30.7811 21.8999C30.8134 21.8999 30.8459 21.8977 30.8786 21.8931C31.1331 21.8579 31.3199 21.6962 31.4086 21.6031C31.5436 21.4611 31.6219 21.3029 31.6075 21.2Z" fill="white"/>
<path d="M37.9752 31.0031C37.8335 30.5745 37.3772 30.4366 36.6192 30.5931C34.3686 31.0576 33.5626 30.7359 33.298 30.541C35.0474 27.876 36.4865 24.6545 37.2629 21.6489C37.6306 20.2251 37.8337 18.9029 37.8504 17.8251C37.8687 16.6423 37.6672 15.773 37.2517 15.242C35.5765 13.1014 33.1177 11.9531 30.1415 11.9216C28.0954 11.8986 26.3666 12.4223 26.0315 12.5695C25.3257 12.394 24.5564 12.2863 23.7187 12.2725C22.1827 12.2476 20.855 12.6154 19.7557 13.365C19.2782 13.1873 18.0442 12.7636 16.5351 12.5205C13.9261 12.1005 11.8529 12.4188 10.3734 13.4669C8.60799 14.7176 7.79299 16.9534 7.95087 20.1119C8.00399 21.1745 8.60949 24.4435 9.56499 27.5741C10.8227 31.6946 12.19 34.0273 13.6285 34.5071C13.7969 34.5633 13.991 34.6025 14.2051 34.6025C14.7299 34.6025 15.3732 34.366 16.0426 33.5613C16.8591 32.5818 17.7036 31.6262 18.5752 30.6955C19.1407 30.999 19.762 31.1685 20.3974 31.1855C20.3986 31.2021 20.4002 31.2188 20.4017 31.2353C20.2924 31.3657 20.1853 31.498 20.0805 31.6321C19.6402 32.191 19.5486 32.3074 18.1315 32.5991C17.7284 32.6824 16.6577 32.903 16.642 33.6535C16.625 34.4735 17.9076 34.8179 18.0537 34.8544C18.563 34.9819 19.0536 35.0448 19.5215 35.0448C20.6594 35.0448 21.6607 34.6708 22.461 33.9471C22.4364 36.8704 22.5582 39.7509 22.9092 40.6285C23.1967 41.347 23.899 43.1029 26.1172 43.1028C26.4427 43.1028 26.801 43.0649 27.1951 42.9804C29.5102 42.4841 30.5156 41.4609 30.9045 39.205C31.1126 37.9994 31.4697 35.1205 31.6377 33.5763C31.9922 33.6869 32.4486 33.7375 32.942 33.7374C33.971 33.7374 35.1584 33.5188 35.903 33.1731C36.7395 32.7846 38.249 31.8314 37.9752 31.0031ZM32.462 20.5681C32.4544 21.024 32.3916 21.4379 32.3251 21.8699C32.2535 22.3345 32.1795 22.8149 32.1609 23.398C32.1425 23.9655 32.2134 24.5555 32.2819 25.1261C32.4204 26.2786 32.5625 27.4651 32.0124 28.6359C31.921 28.474 31.8396 28.3066 31.7686 28.1348C31.7002 27.969 31.5517 27.7028 31.3461 27.3343C30.5462 25.8998 28.6731 22.5405 29.632 21.1698C29.9176 20.7618 30.6425 20.3423 32.462 20.5681ZM30.2565 12.8448C32.9232 12.9036 35.0327 13.9013 36.5262 15.8098C37.6717 17.2736 36.4104 23.9345 32.7587 29.6809C32.722 29.6342 32.6851 29.5876 32.648 29.5413L32.6017 29.4835C33.5454 27.9251 33.3609 26.3833 33.1966 25.0163C33.1291 24.4553 33.0654 23.9254 33.0816 23.4276C33.0984 22.9001 33.1681 22.4476 33.2356 22.0101C33.3185 21.471 33.4029 20.9131 33.3796 20.2555C33.397 20.1865 33.404 20.105 33.3949 20.0083C33.3355 19.3776 32.6155 17.4903 31.148 15.782C30.3452 14.8476 29.1746 13.802 27.5762 13.0968C28.2637 12.9543 29.2039 12.8214 30.2565 12.8448ZM15.3342 32.9723C14.5967 33.859 14.0875 33.689 13.92 33.6333C12.8287 33.2693 11.5625 30.9628 10.4461 27.3053C9.48012 24.1405 8.91562 20.9581 8.87087 20.0658C8.72987 17.2435 9.41399 15.2766 10.9044 14.2196C13.3299 12.4996 17.3176 13.5291 18.92 14.0513C18.897 14.074 18.873 14.0953 18.8502 14.1184C16.2207 16.7739 16.2831 21.3109 16.2896 21.5883C16.2894 21.6953 16.2984 21.8468 16.3106 22.0551C16.3559 22.8183 16.4401 24.2385 16.2151 25.8469C16.0061 27.3415 16.4669 28.8044 17.479 29.8605C17.5829 29.9687 17.692 30.0717 17.8061 30.169C17.3556 30.6515 16.3765 31.7185 15.3342 32.9723ZM18.1441 29.2231C17.3284 28.3719 16.9579 27.1879 17.1275 25.9744C17.365 24.2754 17.2774 22.7956 17.2302 22.0006C17.2236 21.8894 17.2177 21.7919 17.2144 21.715C17.5985 21.3744 19.3786 20.4206 20.6481 20.7115C21.2274 20.8441 21.5804 21.2386 21.7271 21.9171C22.4866 25.43 21.8276 26.8941 21.2981 28.0708C21.189 28.3131 21.0859 28.5423 20.9979 28.7793L20.9296 28.9625C20.7569 29.4258 20.5961 29.8565 20.4965 30.2655C19.6292 30.263 18.7856 29.8925 18.1441 29.223V29.2231ZM18.2772 33.9606C18.024 33.8974 17.7962 33.7875 17.6626 33.6964C17.7742 33.6439 17.9729 33.5724 18.3174 33.5014C19.9845 33.1583 20.242 32.916 20.8042 32.2021C20.9331 32.0384 21.0792 31.8529 21.2816 31.6269L21.2819 31.6266C21.5832 31.2891 21.7211 31.3464 21.9711 31.4501C22.1737 31.5339 22.3711 31.7879 22.4511 32.0674C22.489 32.1994 22.5315 32.4499 22.3924 32.6449C21.2179 34.2894 19.5064 34.2683 18.2772 33.9606ZM27.0021 42.0796C24.9626 42.5166 24.2405 41.476 23.7646 40.2864C23.4575 39.5184 23.3065 36.0551 23.4136 32.2305C23.415 32.1796 23.4077 32.1305 23.3937 32.0843C23.3812 31.9929 23.3622 31.9026 23.3367 31.814C23.1775 31.2575 22.7894 30.792 22.3237 30.599C22.1387 30.5224 21.7992 30.3818 21.3912 30.4861C21.4782 30.1276 21.6291 29.7228 21.7927 29.2844L21.8614 29.1C21.9386 28.8921 22.0356 28.6768 22.1381 28.4488C22.6922 27.2178 23.4511 25.5316 22.6275 21.7225C22.319 20.2958 21.2887 19.599 19.727 19.7609C18.7907 19.8578 17.9341 20.2355 17.5069 20.4521C17.415 20.4986 17.331 20.5436 17.2525 20.5874C17.3717 19.1499 17.8222 16.4634 19.5075 14.7636C20.5686 13.6936 21.9817 13.1651 23.7035 13.1936C27.096 13.2491 29.2715 14.9901 30.4992 16.441C31.5572 17.6911 32.1301 18.9505 32.3587 19.6298C30.6394 19.4549 29.47 19.7943 28.8772 20.6418C27.5876 22.4853 29.5827 26.0633 30.5416 27.7829C30.7175 28.098 30.8692 28.3704 30.917 28.4861C31.2292 29.2429 31.6335 29.7481 31.9286 30.1169C32.0191 30.2299 32.1069 30.3395 32.1736 30.4353C31.6529 30.5854 30.7175 30.9323 30.8027 32.6661C30.734 33.5361 30.2451 37.6094 29.9967 39.0485C29.6689 40.9498 28.9692 41.6579 27.0021 42.0798V42.0796ZM35.5151 32.3376C34.9826 32.5848 34.0915 32.7701 33.245 32.81C32.31 32.8538 31.834 32.7053 31.722 32.6139C31.6695 31.5334 32.0716 31.4205 32.4972 31.301C32.5641 31.2823 32.6294 31.2639 32.6924 31.2419C32.7315 31.2738 32.7744 31.3054 32.8214 31.3364C33.5729 31.8324 34.9132 31.8859 36.8056 31.4953L36.8264 31.4911C36.5711 31.7298 36.1344 32.05 35.5151 32.3376Z" fill="white"/>
</g>
<defs>
<linearGradient id="paint0_linear_594_3413" x1="1" y1="28" x2="45" y2="28" gradientUnits="userSpaceOnUse">
<stop stop-color="#00ACE4"/>
<stop offset="1" stop-color="#0098A9"/>
</linearGradient>
<clipPath id="clip0_594_3413">
<rect width="32" height="33" fill="white" transform="translate(7 11)"/>
</clipPath>
</defs>
</svg>

<svg width="46" height="55" fill="none" xmlns="http://www.w3.org/2000/svg"><path d="M23 2 1 15v25.5L23 53l22-12.5V15L23 2z" fill="url(#a)" stroke="#336791" stroke-width="2"/><g clip-path="url(#b)"><path d="M38.876 30.76c-.192-.58-.694-.985-1.344-1.082-.307-.046-.658-.027-1.073.059a9.582 9.582 0 0 1-1.654.217c1.48-2.498 2.683-5.347 3.376-8.028 1.12-4.336.521-6.312-.178-7.205-1.85-2.365-4.551-3.636-7.809-3.675a13.835 13.835 0 0 0-4.06.569 15.107 15.107 0 0 0-2.373-.217c-1.567-.025-2.952.316-4.135 1.018a18.846 18.846 0 0 0-2.92-.732c-2.855-.47-5.157-.104-6.84 1.085-2.038 1.44-2.983 3.941-2.808 7.435.055 1.11.676 4.484 1.653 7.685.561 1.84 1.16 3.368 1.78 4.541.878 1.665 1.818 2.645 2.873 2.997.591.197 1.665.335 2.796-.606.143.173.334.346.588.506.322.203.716.369 1.109.467 1.418.355 2.745.266 3.878-.23.007.2.013.393.017.56.008.269.015.533.025.78.067 1.672.181 2.972.518 3.882.018.05.043.126.07.207.168.515.449 1.376 1.164 2.051.74.7 1.637.914 2.457.914a5.51 5.51 0 0 0 1.149-.128c1.227-.263 2.621-.664 3.63-2.1.953-1.357 1.417-3.402 1.5-6.624l.031-.26.02-.17.225.019.058.004c1.25.057 2.779-.208 3.718-.645.741-.344 3.119-1.599 2.559-3.293z" fill="#000"/><path d="M36.738 31.09c-3.717.767-3.973-.492-3.973-.492 3.925-5.824 5.566-13.217 4.15-15.026-3.863-4.936-10.55-2.601-10.661-2.54l-.036.006a13.256 13.256 0 0 0-2.48-.259c-1.683-.027-2.959.441-3.927 1.175 0 0-11.928-4.914-11.374 6.181.118 2.36 3.383 17.86 7.278 13.178a72.063 72.063 0 0 1 2.798-3.16 3.61 3.61 0 0 0 2.358.603l.067-.057c-.02.213-.011.42.027.667-1.004 1.12-.709 1.317-2.714 1.73-2.03.418-.838 1.163-.06 1.358.945.236 3.128.57 4.603-1.495l-.06.235c.394.315.67 2.048.623 3.62-.046 1.57-.077 2.65.233 3.492.31.842.619 2.738 3.255 2.173 2.203-.472 3.345-1.696 3.503-3.736.113-1.451.368-1.237.384-2.534l.205-.614c.236-1.966.037-2.6 1.394-2.306l.33.03c1 .045 2.307-.162 3.074-.518 1.652-.767 2.632-2.047 1.003-1.71z" fill="#336791"/><path d="M20.51 21.19c-.336-.046-.639-.003-.792.113a.29.29 0 0 0-.12.194c-.02.138.077.29.136.37.169.222.414.376.658.41a.75.75 0 0 0 .105.007c.405 0 .774-.316.807-.55.04-.291-.383-.486-.794-.543zm11.098.01c-.032-.229-.44-.294-.826-.24-.386.053-.76.228-.73.457.026.178.348.483.73.483a.699.699 0 0 0 .097-.007.939.939 0 0 0 .53-.29c.135-.142.213-.3.199-.403z" fill="#fff"/><path d="M37.975 31.003c-.142-.428-.598-.566-1.356-.41-2.25.465-3.056.143-3.321-.052 1.75-2.665 3.188-5.887 3.965-8.892.368-1.424.57-2.746.587-3.824.019-1.183-.183-2.052-.598-2.583-1.675-2.14-4.134-3.289-7.11-3.32-2.047-.023-3.775.5-4.11.647a10.25 10.25 0 0 0-2.313-.296c-1.536-.025-2.864.342-3.963 1.092a17.694 17.694 0 0 0-3.22-.845c-2.61-.42-4.683-.101-6.163.947-1.765 1.25-2.58 3.486-2.422 6.645.053 1.063.658 4.332 1.614 7.462 1.258 4.12 2.625 6.453 4.064 6.933.168.056.362.096.576.096.525 0 1.168-.237 1.838-1.042a66.256 66.256 0 0 1 2.532-2.866 4.08 4.08 0 0 0 1.822.49l.005.05c-.11.13-.217.263-.322.397-.44.559-.531.675-1.948.967-.404.083-1.474.304-1.49 1.055-.017.82 1.266 1.164 1.412 1.2.509.128 1 .19 1.468.19 1.137 0 2.139-.373 2.939-1.097-.025 2.923.097 5.804.448 6.681.288.719.99 2.475 3.208 2.475.326 0 .684-.038 1.078-.123 2.315-.496 3.32-1.52 3.71-3.775.208-1.206.565-4.084.733-5.629.354.11.81.161 1.304.161 1.029 0 2.216-.218 2.961-.564.837-.388 2.346-1.342 2.072-2.17zm-5.513-10.435c-.008.456-.07.87-.137 1.302-.072.464-.146.945-.164 1.528-.019.567.052 1.157.12 1.728.14 1.153.282 2.34-.269 3.51a4.57 4.57 0 0 1-.243-.501c-.069-.166-.217-.432-.423-.8-.8-1.435-2.673-4.794-1.714-6.165.286-.408 1.01-.828 2.83-.602zm-2.206-7.723c2.667.059 4.777 1.056 6.27 2.965 1.146 1.464-.116 8.124-3.767 13.87a18.829 18.829 0 0 0-.111-.139l-.046-.058c.943-1.558.759-3.1.595-4.467-.068-.56-.132-1.09-.115-1.588.016-.528.086-.98.154-1.418.083-.539.167-1.097.144-1.755a.727.727 0 0 0 .015-.247c-.06-.63-.78-2.518-2.247-4.226-.803-.934-1.973-1.98-3.572-2.685a12.043 12.043 0 0 1 2.68-.252zM15.334 32.972c-.737.887-1.246.717-1.414.661-1.091-.364-2.357-2.67-3.474-6.328-.966-3.165-1.53-6.347-1.575-7.24-.141-2.822.543-4.788 2.033-5.845 2.426-1.72 6.414-.69 8.016-.169l-.07.067c-2.63 2.656-2.567 7.193-2.56 7.47 0 .107.008.259.02.467.046.763.13 2.183-.095 3.792-.209 1.494.252 2.957 1.264 4.013.104.109.213.212.327.309a67.64 67.64 0 0 0-2.472 2.803zm2.81-3.749c-.816-.851-1.186-2.035-1.016-3.249.237-1.699.15-3.178.102-3.973l-.016-.286c.385-.34 2.165-1.294 3.434-1.003.58.132.932.527 1.08 1.205.759 3.513.1 4.977-.43 6.154-.109.242-.212.471-.3.708l-.068.183c-.173.464-.334.895-.433 1.303-.868-.002-1.711-.373-2.353-1.042zm.133 4.738a2.036 2.036 0 0 1-.614-.265c.111-.052.31-.124.654-.195 1.668-.343 1.925-.585 2.487-1.299.13-.164.275-.35.478-.575.301-.338.44-.28.69-.177.202.084.4.338.48.617.037.132.08.383-.06.578-1.174 1.644-2.886 1.623-4.115 1.316zm8.725 8.119c-2.04.437-2.761-.604-3.237-1.794-.308-.768-.459-4.23-.351-8.056a.46.46 0 0 0-.02-.146 1.915 1.915 0 0 0-.057-.27c-.16-.556-.548-1.022-1.013-1.215-.185-.077-.525-.217-.933-.113.087-.358.238-.763.402-1.202l.068-.184c.078-.208.175-.423.277-.651.554-1.231 1.313-2.917.49-6.727-.309-1.426-1.34-2.123-2.901-1.961-.936.097-1.793.474-2.22.691a7.074 7.074 0 0 0-.255.135c.12-1.437.57-4.124 2.256-5.823 1.06-1.07 2.474-1.599 4.195-1.57 3.393.055 5.569 1.796 6.796 3.247 1.058 1.25 1.631 2.51 1.86 3.189-1.72-.175-2.889.164-3.482 1.012-1.29 1.843.706 5.421 1.665 7.14.175.316.327.588.375.704.312.757.716 1.262 1.012 1.63.09.114.178.224.245.32-.521.15-1.456.496-1.371 2.23-.069.87-.558 4.943-.806 6.383-.328 1.9-1.028 2.609-2.995 3.03zm8.513-9.742c-.532.247-1.423.432-2.27.472-.935.044-1.411-.105-1.523-.196-.053-1.08.35-1.193.775-1.313.067-.019.132-.037.195-.06.04.033.082.064.13.095.75.496 2.091.55 3.984.16l.02-.005c-.255.239-.692.559-1.31.847z" fill="#fff"/></g><defs><linearGradient id="a" x1="1" y1="28" x2="45" y2="28" gradientUnits="userSpaceOnUse"><stop stop-color="#00ACE4"/><stop offset="1" stop-color="#0098A9"/></linearGradient><clipPath id="b"><path fill="#fff" transform="translate(7 11)" d="M0 0h32v33H0z"/></clipPath></defs></svg>
